X:23002
T:Manx Jig
R:
B:Tuneworks Tunebook 2 (https://www.tuneworks.co.uk/)
G:Tuneworks
Z:Jon Warbrick <jon.warbrick@googlemail.com>
M:6/8
L:1/8
K:G
|: "G" D2 G BAG | "D" F2 A d2 e | "C" fed cAG | "D" F2 G AFE |
"G" D2 G BAG | "D" F2 A d2 e | "C" fed"D" cAF |1 "G" G3 GFE :|2 "G" G3 GBd |
|: "G" g3 gfg | "D" a2 f d2 e | "C" fed cAG |1 "D" F2 G AGF |
"G" G2 g gfg | "D" a2 f d2 e | "C" fed"D" cAF | "G" G3 GBd :|2
"D" F2 G AFE | "G" D2 G BAG | "D" F2 A d2 e | "C" fed"D" cAF | "G" G3 G3 |]
